X:1
T:VELUM TEMPLI
T:Mariano Garau
T:VELUM TEMPLI
T:Responsorio 2 Feria VI. in Parasceve (Ad Matutinum)
C:Mariano Garau
%%score [ 1 2 3 4 ]
L:1/8
Q:1/2=50
M:2/2
K:Gmin
V:1 treble nm="Soprano" snm="S"
V:2 treble nm="Alto" snm="A"
V:3 treble-8 nm="Tenore" snm="T"
V:4 bass transpose=-12 nm="Basso" snm="B"
V:1
 z8 | z8 | G2 G2 G2 d2 | d2 c2 A4- | A2 A2 A2 G2 | D2 F2 F2 E2 | D8 | G4 G2 G2 | G4 ^F2 A2 | %9
w: ||Ve- lum tem- pli|scis- sum est,|_ Et om- nis|ter- ra tre- mu-|it:|la- tro de|cru- ce cla-|
 A2 B2 G4 | !fermata!G4 z4 | z8 | z8 | z8 | z8 | z8 | B4 B4 | B2 B2 A4- | A2 A2 A2 G2 | G2 d2 e4 | %20
w: ma- bat, di-|cens:||||||Pe- trae|scis- sae sunt,|_ et mo- nu-|men- ta a-|
 e2 e2 d4- | d2 B2 B4 | A4 A2 G2 | (D2 F2) E4 | E2 E2 D4 | D2 D2 D4 | D4"^Rall." D2 D2 | %27
w: per- ta sunt,|_ et mul-|ta cor- po-|ra _ san-|to- rum, qui|dor- mi- e-|rant, sur- re-|
 D4 !fermata!D4 |] %28
w: xe- runt.|
V:2
 z4 G2 D2 | F2 E2 D2 C2 |!<(! D8 | E2 E2 E4-!<)! | E2 E2 D2 D2 | D2 D2 D2 C2 | B,8 | D4 D2 D2 | %8
w: Ve- lum|tem- pli scis- sum|est,|scis- sum est,|_ Et om- nis|ter- ra tre- mu-|it:|la- tro de|
 D4 D2 D2 | D2 D2 D4 | !fermata!D4 z2 D2 | G2 F2 G2 D2 | C2 E2 D4- | D2 D2 G2 G2 | B2 c2 A2 G2 | %15
w: cru- ce cla-|ma- bat, di-|cens: Me-|men- to me- i|Do- mi- ne,|_ dum ve- ne-|ris in re- gnum|
 A4 !fermata!A4 |!<(! B,4 B,4 | E2 E2 E4- | E2 E2 D2 D2 | D2 D2!<)! C4 | G2 A2 B4- | B2 G2 E4 | %22
w: tu- um.|Pe- trae|scis- sae sunt,|_ et mo- nu-|men- ta a-|per- ta sunt,|_ et mul-|
 E4 D2 D2 | D4 (D2 C2) | B,2 A,2 A,4 | A,2 A,2 A,4 |!>(! A,4 A,2 A,2 | =B,4 !fermata!B,4!>)! |] %28
w: ta cor- po-|ra san- *|to- rum, qui|dor- mi- e-|rant, sur- re-|xe- runt.|
V:3
 z8 | z8 | B2 B2 B2 B2 | c2 c2 c4- | c2 c2 B2 B2 | G2 G2 G2 G2 | G8 | G4 G2 G2 | A4 A2 c2 | %9
w: ||Ve- lum tem- pli|scis- sum est,|_ Et om- nis|ter- ra tre- mu-|it:|la- tro de|cru- ce cla-|
 c2 c2 B4 | !fermata!B4 z4 | z8 | z8 | z8 | z8 | z8 |!<(! G4 G4 | G2 G2 ^F4- | F2 ^F2 G2 G2 | %19
w: ma- bat, di-|cens:||||||Pe- trae|scis- sae sunt,|_ et mo- nu-|
 G2 G2!<)! G4 | c2 c2 B4- | B2 d2 c4 | (c2 ^F2) G2 G2 | G4 G4 | G2 G2 G4 | ^F2 =E2 F4 | %26
w: men- ta a-|per- ta sunt,|_ et mul-|ta _ cor- po-|ra san-|to- rum, qui|dor- mi- e-|
!>(! ^F4 F2 F2 | G4!>)! !fermata!G4 |] %28
w: rant, sur- re-|xe- runt.|
V:4
 G,6 G,2 | G,2 G,2 G,2 G,2 |!<(! G,8 | G,2 G,2!<)! G,4- | G,2 G,2 E,2 E,2 | E,2 D,2 C,2 C,2 | %6
w: Ve- lum|tem- pli scis- sum|est,|scis- sum est,|_ Et om- nis|ter- ra tre- mu-|
 G,,8 | B,,4 B,,2 B,,2 | D,4 D,2 ^F,2 | ^F,2 F,2 G,4 | !fermata!G,4 z2 D,2 | G,2 F,2 G,2 D,2 | %12
w: it:|la- tro de|cru- ce cla-|ma- bat, di-|cens: Me-|men- to me- i|
 C,2 E,2 D,4- | D,2 D,2 G,2 G,2 | B,2 C2 A,2 G,2 | A,4 !fermata!A,4 |!<(!!<(! G,,4 G,,4 | %17
w: Do- mi- ne,|_ dum ve- ne-|ris in re- gnum|tu- um.|Pe- trae|
 C,2 C,2 C,4- | C,2 C,2 B,,2 B,,2 | B,,2 B,,2!<)!!<)! C,4 | C,2 C,2 G,4- | G,2 G,2 C,4 | %22
w: scis- sae sunt,|_ et mo- nu-|men- ta a-|per- ta sunt,|_ et mul-|
 C,4 B,,2 B,,2 | B,,4 C,4 | C,2 C,2 D,4 | D,2 D,2 D,4 |!>(!!>(! D,4 D,2 D,2 | %27
w: ta cor- po-|ra san-|to- rum, qui|dor- mi- e-|rant, sur- re-|
 G,,4!>)!!>)! !fermata!G,,4 |] %28
w: xe- runt.|

